X:1
T:Take This Hammer
M:4/4
L:1/4
K:G
D/2-G/2 G| G2 G2| z A3.99999962500005/11.9999985000002 A3.99999962500005/11.9999985000002 A3.99999962500005/11.9999985000002 G3/4 G/4|\
 F2 D2| zD/2-F/2 F| A2 A2| z/2 d/2 d3.99999962500005/11.9999985000002 d3.99999962500005/11.9999985000002 d3.99999962500005/11.9999985000002 c3/4 c/4|\
 B2 G2| z G B| d2 d2| z/2 e/2 e3.99999962500005/11.9999985000002 e3.99999962500005/11.9999985000002 e3.99999962500005/11.9999985000002 d3/4 d/4|\
 d2- c2| d- c3/4 d/4 d3/4 d/4 c| B2- G2| z/2 B/2 B3/4 B/4 G| G4| z||\
